static/img/kroki/5da4b07814df3a917469453db9d6b867.svg

<?xml version="1.0" encoding="us-ascii" standalone="no"?><svg xmlns="http://www.w3.org/2000/svg" xmlns:xlink="http://www.w3.org/1999/xlink" contentStyleType="text/css" height="374px" preserveAspectRatio="none" style="width:350px;height:374px;" version="1.1" viewBox="0 0 350 374" width="350px" zoomAndPan="magnify"><defs/><g><!--class azure_network_express_route_port--><g id="elem_azure_network_express_route_port"><rect codeLine="23" fill="#3D176E" height="39.7891" id="azure_network_express_route_port" rx="2.5" ry="2.5" style="stroke:#000D19;stroke-width:0.5;" width="336" x="7" y="328.58"/><ellipse cx="22" cy="348.4745" fill="#ADD1B2" rx="11" ry="11" style="stroke:#181818;stroke-width:1.0;"/><path d="M24.9688,354.1152 Q24.3906,354.412 23.75,354.5527 Q23.1094,354.7089 22.4063,354.7089 Q19.9063,354.7089 18.5781,353.0683 Q17.2656,351.412 17.2656,348.287 Q17.2656,345.162 18.5781,343.5058 Q19.9063,341.8495 22.4063,341.8495 Q23.1094,341.8495 23.75,342.0058 Q24.4063,342.162 24.9688,342.4589 L24.9688,345.1777 Q24.3438,344.5995 23.75,344.3339 Q23.1563,344.0527 22.5313,344.0527 Q21.1875,344.0527 20.5,345.1308 Q19.8125,346.1933 19.8125,348.287 Q19.8125,350.3808 20.5,351.4589 Q21.1875,352.5214 22.5313,352.5214 Q23.1563,352.5214 23.75,352.2558 Q24.3438,351.9745 24.9688,351.3964 L24.9688,354.1152 Z " fill="#000000"/><text fill="#D9B8FF" font-family="Helvetica" font-size="17" lengthAdjust="spacing" textLength="294" x="41" y="354.3598">azure_network_express_route_port</text></g><!--class microsoft_resource--><g id="elem_microsoft_resource"><rect codeLine="26" fill="#3D176E" height="39.7891" id="microsoft_resource" rx="2.5" ry="2.5" style="stroke:#000D19;stroke-width:0.5;" width="200" x="75" y="167.79"/><ellipse cx="90" cy="187.6845" fill="#ADD1B2" rx="11" ry="11" style="stroke:#181818;stroke-width:1.0;"/><path d="M92.9688,193.3252 Q92.3906,193.622 91.75,193.7627 Q91.1094,193.9189 90.4063,193.9189 Q87.9063,193.9189 86.5781,192.2783 Q85.2656,190.622 85.2656,187.497 Q85.2656,184.372 86.5781,182.7158 Q87.9063,181.0595 90.4063,181.0595 Q91.1094,181.0595 91.75,181.2158 Q92.4063,181.372 92.9688,181.6689 L92.9688,184.3877 Q92.3438,183.8095 91.75,183.5439 Q91.1563,183.2627 90.5313,183.2627 Q89.1875,183.2627 88.5,184.3408 Q87.8125,185.4033 87.8125,187.497 Q87.8125,189.5908 88.5,190.6689 Q89.1875,191.7314 90.5313,191.7314 Q91.1563,191.7314 91.75,191.4658 Q92.3438,191.1845 92.9688,190.6064 L92.9688,193.3252 Z " fill="#000000"/><text fill="#D9B8FF" font-family="Helvetica" font-size="17" lengthAdjust="spacing" textLength="158" x="109" y="193.5698">microsoft_resource</text></g><!--class resource--><g id="elem_resource"><rect codeLine="29" fill="#3D176E" height="39.7891" id="resource" rx="2.5" ry="2.5" style="stroke:#000D19;stroke-width:0.5;" width="113" x="118.5" y="7"/><ellipse cx="133.5" cy="26.8945" fill="#ADD1B2" rx="11" ry="11" style="stroke:#181818;stroke-width:1.0;"/><path d="M136.4688,32.5352 Q135.8906,32.832 135.25,32.9727 Q134.6094,33.1289 133.9063,33.1289 Q131.4063,33.1289 130.0781,31.4883 Q128.7656,29.832 128.7656,26.707 Q128.7656,23.582 130.0781,21.9258 Q131.4063,20.2695 133.9063,20.2695 Q134.6094,20.2695 135.25,20.4258 Q135.9063,20.582 136.4688,20.8789 L136.4688,23.5977 Q135.8438,23.0195 135.25,22.7539 Q134.6563,22.4727 134.0313,22.4727 Q132.6875,22.4727 132,23.5508 Q131.3125,24.6133 131.3125,26.707 Q131.3125,28.8008 132,29.8789 Q132.6875,30.9414 134.0313,30.9414 Q134.6563,30.9414 135.25,30.6758 Q135.8438,30.3945 136.4688,29.8164 L136.4688,32.5352 Z " fill="#000000"/><text fill="#D9B8FF" font-family="Helvetica" font-size="17" lengthAdjust="spacing" textLength="71" x="152.5" y="32.7798">resource</text></g><!--reverse link microsoft_resource to azure_network_express_route_port--><g id="link_microsoft_resource_azure_network_express_route_port"><path codeLine="32" d="M175,225.84 C175,256.36 175,297.69 175,328.25 " fill="none" id="microsoft_resource-backto-azure_network_express_route_port" style="stroke:#FFAF37;stroke-width:2.0;"/><polygon fill="none" points="175,207.84,169,225.84,181,225.84,175,207.84" style="stroke:#FFAF37;stroke-width:2.0;"/></g><!--reverse link resource to microsoft_resource--><g id="link_resource_microsoft_resource"><path codeLine="33" d="M175,65.05 C175,95.57 175,136.9 175,167.46 " fill="none" id="resource-backto-microsoft_resource" style="stroke:#FFAF37;stroke-width:2.0;"/><polygon fill="none" points="175,47.05,169,65.05,181,65.05,175,47.05" style="stroke:#FFAF37;stroke-width:2.0;"/></g><!--SRC=[XT9DJyCm30RWUtz5f9qdTKpGJU8o9Y6uJ8XnhzB6MQEsSUMub0tuxxHieApTnzL-PB-EaXa50igAjwA4CW5oWSkDhIJ9KYo8i5bYWIH6MaizZVhDHxHy5Qna2U89YdTWayg-UCjCcbjmJjnuhGUPvXl2sghzU2PfNTi2ovvQ5jAv1JEPf6RmmgXvCjEwB_j3HrCrYUvWm90Kq864OQWcypwvkkhYtVzYRNOW9lwZhP1X47EmubTTJDa9B-JWqB_-sOmlKYbZD-BMgxtkCv45EgglCwcmwRIMXVFNE0O2v6q5oy5LC9yf7Pt4p-Tma7PF9-Ik9eWjS8EKn_1HKVj_ujOpn1KIYyyW-3xOqgI43ZN7BSAQKl2xnxKJzlvhF1vVNHZq_71Gy0C0]--></g></svg>

<svg xmlns="http://www.w3.org/2000/svg" width="350" height="374" viewBox="0 0 350 374"><rect width="336" height="39.789" x="7" y="328.58" fill="#3D176E" rx="2.5" ry="2.5" style="stroke:#000d19;stroke-width:.5"/><circle cx="22" cy="348.474" r="11" fill="#ADD1B2" style="stroke:#181818;stroke-width:1"/><path d="M24.969 354.115q-.578.297-1.219.438-.64.156-1.344.156-2.5 0-3.828-1.64-1.312-1.657-1.312-4.782t1.312-4.781q1.328-1.656 3.828-1.656.703 0 1.344.156.656.156 1.219.453v2.719q-.625-.579-1.219-.844-.594-.281-1.219-.281-1.343 0-2.031 1.078-.687 1.062-.687 3.156t.687 3.172q.688 1.062 2.031 1.062.625 0 1.219-.265.594-.281 1.219-.86z"/><text x="41" y="354.36" fill="#D9B8FF" font-family="Helvetica" font-size="17" textLength="294">azure_network_express_route_port</text><rect width="200" height="39.789" x="75" y="167.79" fill="#3D176E" rx="2.5" ry="2.5" style="stroke:#000d19;stroke-width:.5"/><circle cx="90" cy="187.685" r="11" fill="#ADD1B2" style="stroke:#181818;stroke-width:1"/><path d="M92.969 193.325q-.578.297-1.219.438-.64.156-1.344.156-2.5 0-3.828-1.64-1.312-1.657-1.312-4.782t1.312-4.781q1.328-1.656 3.828-1.656.703 0 1.344.156.656.156 1.219.453v2.719q-.625-.578-1.219-.844-.594-.281-1.219-.281-1.344 0-2.031 1.078-.687 1.062-.687 3.156t.687 3.172q.688 1.062 2.031 1.062.625 0 1.219-.265.594-.281 1.219-.86z"/><text x="109" y="193.57" fill="#D9B8FF" font-family="Helvetica" font-size="17" textLength="158">microsoft_resource</text><rect width="113" height="39.789" x="118.5" y="7" fill="#3D176E" rx="2.5" ry="2.5" style="stroke:#000d19;stroke-width:.5"/><circle cx="133.5" cy="26.895" r="11" fill="#ADD1B2" style="stroke:#181818;stroke-width:1"/><path d="M136.469 32.535q-.578.297-1.219.438-.64.156-1.344.156-2.5 0-3.828-1.64-1.312-1.657-1.312-4.782t1.312-4.781q1.328-1.656 3.828-1.656.703 0 1.344.156.656.156 1.219.453v2.719q-.625-.578-1.219-.844-.594-.281-1.219-.281-1.344 0-2.031 1.078-.687 1.062-.687 3.156t.687 3.172q.688 1.062 2.031 1.062.625 0 1.219-.265.594-.281 1.219-.86z"/><text x="152.5" y="32.78" fill="#D9B8FF" font-family="Helvetica" font-size="17" textLength="71">resource</text><path fill="none" d="M175 225.84v102.41m0-120.41-6 18h12zm0-142.79v102.41m0-120.41-6 18h12z" style="stroke:#ffaf37;stroke-width:2"/></svg>
